packages/foundations/assets/icons/functional/images/transportation/pedestrian_20.svg

<svg width="20" height="20" viewBox="0 0 20 20" fill="none" xmlns="http://www.w3.org/2000/svg">
<g clip-path="url(#clip0_187_922)">
<path fill-rule="evenodd" clip-rule="evenodd" d="M6.22592 16.2461L8.68797 11.356L8.91203 8.662L8.11197 9.01395L7.91997 10.39C7.85597 10.902 7.40797 11.2541 6.92792 11.2541C6.38397 11.2541 5.93597 10.774 5.93597 10.262C5.93597 10.198 5.93597 10.134 5.93597 10.1021L6.25597 8.18205C6.28792 7.83 6.51197 7.54205 6.79992 7.41405L8.75197 6.51805C9.07197 6.39005 9.61592 6.06995 9.99992 6.06995C10.352 6.06995 10.7679 6.39005 10.992 6.51805L13.616 8.18205C13.872 8.37395 14.064 8.69405 14.064 9.046C14.064 9.622 13.5839 10.0379 13.0719 10.0379C12.848 10.0379 12.656 9.97405 12.496 9.878L10.8959 8.82205L10.7175 11.3824L12.502 12.9819C12.6939 13.1099 12.841 13.298 12.918 13.526L13.9679 16.47C13.9679 16.5659 14 16.662 14 16.7581C14 17.2701 13.552 17.75 13.008 17.75C12.528 17.75 12.144 17.4619 12.016 17.0141L11.062 14.422L9.8881 13.2347L7.92197 17.238C7.72997 17.558 7.44202 17.75 7.05802 17.75C6.48192 17.75 6.06597 17.2701 6.06597 16.7581C6.06597 16.5659 6.09792 16.406 6.22592 16.2461ZM8.68797 3.74995C8.68797 2.92026 9.3901 2.25 10.188 2.25C11.0497 2.25 11.688 2.92026 11.688 3.74995C11.688 4.54787 11.0497 5.25 10.188 5.25C9.3901 5.25 8.68797 4.54787 8.68797 3.74995Z" fill="#1A1C1F"/>
</g>
<defs>
<clipPath id="clip0_187_922">
<rect width="20" height="20" fill="white"/>
</clipPath>
</defs>
</svg>

<svg xmlns="http://www.w3.org/2000/svg" width="20" height="20" fill="none"><g clip-path="url(#a)"><path fill="#1A1C1F" fill-rule="evenodd" d="m6.226 16.246 2.462-4.89.224-2.694-.8.352-.192 1.376a1 1 0 0 1-.992.864c-.544 0-.992-.48-.992-.992v-.16l.32-1.92a.94.94 0 0 1 .544-.768l1.952-.896c.32-.128.864-.448 1.248-.448.352 0 .768.32.992.448l2.624 1.664c.256.192.448.512.448.864 0 .576-.48.992-.992.992-.224 0-.416-.064-.576-.16l-1.6-1.056-.179 2.56 1.785 1.6c.192.128.339.316.416.544l1.05 2.944c0 .096.032.192.032.288 0 .512-.448.992-.992.992a1 1 0 0 1-.992-.736l-.954-2.592-1.174-1.187-1.966 4.003c-.192.32-.48.512-.864.512a.997.997 0 0 1-.992-.992c0-.192.032-.352.16-.512M8.688 3.75c0-.83.702-1.5 1.5-1.5.862 0 1.5.67 1.5 1.5 0 .798-.638 1.5-1.5 1.5-.798 0-1.5-.702-1.5-1.5" clip-rule="evenodd"/></g><defs><clipPath id="a"><path fill="#fff" d="M0 0h20v20H0z"/></clipPath></defs></svg>
